static/img/kroki/a0c9e5becfae5252847591c7fc5bf00f.svg

<?xml version="1.0" encoding="us-ascii" standalone="no"?><svg xmlns="http://www.w3.org/2000/svg" xmlns:xlink="http://www.w3.org/1999/xlink" contentStyleType="text/css" height="374px" preserveAspectRatio="none" style="width:300px;height:374px;" version="1.1" viewBox="0 0 300 374" width="300px" zoomAndPan="magnify"><defs/><g><!--class aws_cloudformation_stack--><g id="elem_aws_cloudformation_stack"><rect codeLine="23" fill="#3D176E" height="39.7891" id="aws_cloudformation_stack" rx="2.5" ry="2.5" style="stroke:#000D19;stroke-width:0.5;" width="263" x="30" y="328.58"/><ellipse cx="45" cy="348.4745" fill="#ADD1B2" rx="11" ry="11" style="stroke:#181818;stroke-width:1.0;"/><path d="M47.9688,354.1152 Q47.3906,354.412 46.75,354.5527 Q46.1094,354.7089 45.4063,354.7089 Q42.9063,354.7089 41.5781,353.0683 Q40.2656,351.412 40.2656,348.287 Q40.2656,345.162 41.5781,343.5058 Q42.9063,341.8495 45.4063,341.8495 Q46.1094,341.8495 46.75,342.0058 Q47.4063,342.162 47.9688,342.4589 L47.9688,345.1777 Q47.3438,344.5995 46.75,344.3339 Q46.1563,344.0527 45.5313,344.0527 Q44.1875,344.0527 43.5,345.1308 Q42.8125,346.1933 42.8125,348.287 Q42.8125,350.3808 43.5,351.4589 Q44.1875,352.5214 45.5313,352.5214 Q46.1563,352.5214 46.75,352.2558 Q47.3438,351.9745 47.9688,351.3964 L47.9688,354.1152 Z " fill="#000000"/><text fill="#D9B8FF" font-family="Helvetica" font-size="17" lengthAdjust="spacing" textLength="221" x="64" y="354.3598">aws_cloudformation_stack</text></g><!--class aws_resource--><g id="elem_aws_resource"><rect codeLine="26" fill="#3D176E" height="39.7891" id="aws_resource" rx="2.5" ry="2.5" style="stroke:#000D19;stroke-width:0.5;" width="155" x="7" y="167.79"/><ellipse cx="22" cy="187.6845" fill="#ADD1B2" rx="11" ry="11" style="stroke:#181818;stroke-width:1.0;"/><path d="M24.9688,193.3252 Q24.3906,193.622 23.75,193.7627 Q23.1094,193.9189 22.4063,193.9189 Q19.9063,193.9189 18.5781,192.2783 Q17.2656,190.622 17.2656,187.497 Q17.2656,184.372 18.5781,182.7158 Q19.9063,181.0595 22.4063,181.0595 Q23.1094,181.0595 23.75,181.2158 Q24.4063,181.372 24.9688,181.6689 L24.9688,184.3877 Q24.3438,183.8095 23.75,183.5439 Q23.1563,183.2627 22.5313,183.2627 Q21.1875,183.2627 20.5,184.3408 Q19.8125,185.4033 19.8125,187.497 Q19.8125,189.5908 20.5,190.6689 Q21.1875,191.7314 22.5313,191.7314 Q23.1563,191.7314 23.75,191.4658 Q24.3438,191.1845 24.9688,190.6064 L24.9688,193.3252 Z " fill="#000000"/><text fill="#D9B8FF" font-family="Helvetica" font-size="17" lengthAdjust="spacing" textLength="113" x="41" y="193.5698">aws_resource</text></g><!--class resource--><g id="elem_resource"><rect codeLine="29" fill="#3D176E" height="39.7891" id="resource" rx="2.5" ry="2.5" style="stroke:#000D19;stroke-width:0.5;" width="113" x="105" y="7"/><ellipse cx="120" cy="26.8945" fill="#ADD1B2" rx="11" ry="11" style="stroke:#181818;stroke-width:1.0;"/><path d="M122.9688,32.5352 Q122.3906,32.832 121.75,32.9727 Q121.1094,33.1289 120.4063,33.1289 Q117.9063,33.1289 116.5781,31.4883 Q115.2656,29.832 115.2656,26.707 Q115.2656,23.582 116.5781,21.9258 Q117.9063,20.2695 120.4063,20.2695 Q121.1094,20.2695 121.75,20.4258 Q122.4063,20.582 122.9688,20.8789 L122.9688,23.5977 Q122.3438,23.0195 121.75,22.7539 Q121.1563,22.4727 120.5313,22.4727 Q119.1875,22.4727 118.5,23.5508 Q117.8125,24.6133 117.8125,26.707 Q117.8125,28.8008 118.5,29.8789 Q119.1875,30.9414 120.5313,30.9414 Q121.1563,30.9414 121.75,30.6758 Q122.3438,30.3945 122.9688,29.8164 L122.9688,32.5352 Z " fill="#000000"/><text fill="#D9B8FF" font-family="Helvetica" font-size="17" lengthAdjust="spacing" textLength="71" x="139" y="32.7798">resource</text></g><!--class stack--><g id="elem_stack"><rect codeLine="32" fill="#3D176E" height="39.7891" id="stack" rx="2.5" ry="2.5" style="stroke:#000D19;stroke-width:0.5;" width="85" x="197" y="167.79"/><ellipse cx="212" cy="187.6845" fill="#ADD1B2" rx="11" ry="11" style="stroke:#181818;stroke-width:1.0;"/><path d="M214.9688,193.3252 Q214.3906,193.622 213.75,193.7627 Q213.1094,193.9189 212.4063,193.9189 Q209.9063,193.9189 208.5781,192.2783 Q207.2656,190.622 207.2656,187.497 Q207.2656,184.372 208.5781,182.7158 Q209.9063,181.0595 212.4063,181.0595 Q213.1094,181.0595 213.75,181.2158 Q214.4063,181.372 214.9688,181.6689 L214.9688,184.3877 Q214.3438,183.8095 213.75,183.5439 Q213.1563,183.2627 212.5313,183.2627 Q211.1875,183.2627 210.5,184.3408 Q209.8125,185.4033 209.8125,187.497 Q209.8125,189.5908 210.5,190.6689 Q211.1875,191.7314 212.5313,191.7314 Q213.1563,191.7314 213.75,191.4658 Q214.3438,191.1845 214.9688,190.6064 L214.9688,193.3252 Z " fill="#000000"/><text fill="#D9B8FF" font-family="Helvetica" font-size="17" lengthAdjust="spacing" textLength="43" x="231" y="193.5698">stack</text></g><!--reverse link aws_resource to aws_cloudformation_stack--><g id="link_aws_resource_aws_cloudformation_stack"><path codeLine="35" d="M101.644,224.0361 C116.444,254.5561 137.36,297.69 152.18,328.25 " fill="none" id="aws_resource-backto-aws_cloudformation_stack" style="stroke:#FFAF37;stroke-width:2.0;"/><polygon fill="none" points="93.79,207.84,96.2452,226.6541,107.0427,221.4182,93.79,207.84" style="stroke:#FFAF37;stroke-width:2.0;"/></g><!--reverse link stack to aws_cloudformation_stack--><g id="link_stack_aws_cloudformation_stack"><path codeLine="36" d="M222.1547,223.9965 C207.1647,254.5165 185.95,297.69 170.94,328.25 " fill="none" id="stack-backto-aws_cloudformation_stack" style="stroke:#FFAF37;stroke-width:2.0;"/><polygon fill="none" points="230.09,207.84,216.7692,221.3514,227.5402,226.6416,230.09,207.84" style="stroke:#FFAF37;stroke-width:2.0;"/></g><!--reverse link resource to aws_resource--><g id="link_resource_aws_resource"><path codeLine="37" d="M144.356,63.2461 C129.556,93.7661 108.64,136.9 93.82,167.46 " fill="none" id="resource-backto-aws_resource" style="stroke:#FFAF37;stroke-width:2.0;"/><polygon fill="none" points="152.21,47.05,138.9573,60.6282,149.7548,65.8641,152.21,47.05" style="stroke:#FFAF37;stroke-width:2.0;"/></g><!--reverse link resource to stack--><g id="link_resource_stack"><path codeLine="38" d="M178.8453,63.2065 C193.8353,93.7265 215.05,136.9 230.06,167.46 " fill="none" id="resource-backto-stack" style="stroke:#FFAF37;stroke-width:2.0;"/><polygon fill="none" points="170.91,47.05,173.4598,65.8516,184.2308,60.5614,170.91,47.05" style="stroke:#FFAF37;stroke-width:2.0;"/></g><!--SRC=[XP3DRi9038JlUOgLE2E5eXQGUg6HglQ2gj8xSh9UM2LP8wzJH7_UlQGfrP80kSvyOu-ziHeLbblPgnBB5Db7FhTk2mobcZFJBg62M0sC0JEUjCr7Sj8BBA14zOJ5EuhDe4syRMoME_HUtGJM0sJvcgbokXal3CuVB7GIK4a1tiz5sAQLO516pzAfCMsoFNGmrgF97NOmOetyXyHnh4UpDjAxwkhT_yJIVg0QXKzRa62dPcV5BtMrPKq49Jk77lsB7Lz0Q-lMwZRGNfjEx91FzEK6DErgsa3XmpLUa95alyMaSnNEfjfCpiBFb-0egr-dOETNMK6LDiGbY2MtydA8gCye-WuOHayLPnZgvxGWV1Ax_neEXnUtHKsi1pepx2YrlIRm0m00]--></g></svg>

<svg xmlns="http://www.w3.org/2000/svg" width="300" height="374" viewBox="0 0 300 374"><rect width="263" height="39.789" x="30" y="328.58" fill="#3D176E" rx="2.5" ry="2.5" style="stroke:#000d19;stroke-width:.5"/><circle cx="45" cy="348.474" r="11" fill="#ADD1B2" style="stroke:#181818;stroke-width:1"/><path d="M47.969 354.115q-.578.297-1.219.438-.64.156-1.344.156-2.5 0-3.828-1.64-1.312-1.657-1.312-4.782t1.312-4.781q1.328-1.656 3.828-1.656.703 0 1.344.156.656.156 1.219.453v2.719q-.625-.579-1.219-.844-.594-.281-1.219-.281-1.343 0-2.031 1.078-.687 1.062-.687 3.156t.687 3.172q.688 1.062 2.031 1.062.625 0 1.219-.265.594-.281 1.219-.86z"/><text x="64" y="354.36" fill="#D9B8FF" font-family="Helvetica" font-size="17" textLength="221">aws_cloudformation_stack</text><rect width="155" height="39.789" x="7" y="167.79" fill="#3D176E" rx="2.5" ry="2.5" style="stroke:#000d19;stroke-width:.5"/><circle cx="22" cy="187.685" r="11" fill="#ADD1B2" style="stroke:#181818;stroke-width:1"/><path d="M24.969 193.325q-.578.297-1.219.438-.64.156-1.344.156-2.5 0-3.828-1.64-1.312-1.657-1.312-4.782t1.312-4.781q1.328-1.656 3.828-1.656.703 0 1.344.156.656.156 1.219.453v2.719q-.625-.578-1.219-.844-.594-.281-1.219-.281-1.343 0-2.031 1.078-.687 1.062-.687 3.156t.687 3.172q.688 1.062 2.031 1.062.625 0 1.219-.265.594-.281 1.219-.86z"/><text x="41" y="193.57" fill="#D9B8FF" font-family="Helvetica" font-size="17" textLength="113">aws_resource</text><rect width="113" height="39.789" x="105" y="7" fill="#3D176E" rx="2.5" ry="2.5" style="stroke:#000d19;stroke-width:.5"/><circle cx="120" cy="26.895" r="11" fill="#ADD1B2" style="stroke:#181818;stroke-width:1"/><path d="M122.969 32.535q-.578.297-1.219.438-.64.156-1.344.156-2.5 0-3.828-1.64-1.312-1.657-1.312-4.782t1.312-4.781q1.328-1.656 3.828-1.656.703 0 1.344.156.656.156 1.219.453v2.719q-.625-.578-1.219-.844-.594-.281-1.219-.281-1.344 0-2.031 1.078-.687 1.062-.687 3.156t.687 3.172q.688 1.062 2.031 1.062.625 0 1.219-.265.594-.281 1.219-.86z"/><text x="139" y="32.78" fill="#D9B8FF" font-family="Helvetica" font-size="17" textLength="71">resource</text><rect width="85" height="39.789" x="197" y="167.79" fill="#3D176E" rx="2.5" ry="2.5" style="stroke:#000d19;stroke-width:.5"/><circle cx="212" cy="187.685" r="11" fill="#ADD1B2" style="stroke:#181818;stroke-width:1"/><path d="M214.969 193.325q-.578.297-1.219.438-.64.156-1.344.156-2.5 0-3.828-1.64-1.312-1.657-1.312-4.782t1.312-4.781q1.328-1.656 3.828-1.656.703 0 1.344.156.656.156 1.219.453v2.719q-.625-.578-1.219-.844-.594-.281-1.219-.281-1.344 0-2.031 1.078-.687 1.062-.687 3.156t.687 3.172q.688 1.062 2.031 1.062.625 0 1.219-.265.594-.281 1.219-.86z"/><text x="231" y="193.57" fill="#D9B8FF" font-family="Helvetica" font-size="17" textLength="43">stack</text><path fill="none" d="M101.644 224.036 152.18 328.25M93.79 207.84l2.455 18.814 10.798-5.236zm128.365 16.157c-14.99 30.52-36.205 73.693-51.215 104.253m59.15-120.41-13.32 13.511 10.77 5.29zM144.356 63.246 93.82 167.46m58.39-120.41-13.253 13.578 10.798 5.236z" style="stroke:#ffaf37;stroke-width:2"/><g fill="none"><path d="M178.845 63.207c14.99 30.52 36.205 73.693 51.215 104.253" style="stroke:#ffaf37;stroke-width:2"/><path d="m170.91 47.05 2.55 18.802 10.77-5.29z" style="stroke:#ffaf37;stroke-width:2"/></g></svg>
